public/static/icons/navbar/ic_charts.svg

<svg height="24" viewBox="0 0 24 24" width="24" xmlns="http://www.w3.org/2000/svg"><g transform="translate(3 2)"><path d="m11.9047619 8.88571429h6.352381c.4365679 0 .7904761-.35390825.7904761-.79047619 0-3.94489107-3.197966-7.14285715-7.1428571-7.14285715-.4365679 0-.7904762.35390825-.7904762.79047619v6.35238096c0 .43656794.3539083.79047619.7904762.79047619z" opacity=".48"/><path d="m18.1714286 10.4761905h-7.7619048c-.2298543 0-.45029434-.0913093-.61282587-.2538408s-.25384079-.3829716-.25384079-.61282589v-7.78095238c.00148093-.24986307-.10378606-.48847215-.28933007-.65582557s-.43371196-.2475288-.6820985-.22036491c-4.9714794.52789096-8.68852302 4.81001278-8.51226727 9.80633245.17625575 4.9963197 4.18580563 9.0058696 9.1821253 9.1821253 4.9963197.1762558 9.2784415-3.5407879 9.8063324-8.5122673.021411-.245273-.06136-.4882368-.2280552-.6694272-.1666952-.1811905-.4019312-.2838865-.6481352-.2829537z"/></g></svg>

<svg xmlns="http://www.w3.org/2000/svg" width="24" height="24" viewBox="0 0 24 24">
  <g transform="translate(3 2)">
    <path d="M11.9047619,8.88571429 L18.2571429,8.88571429 C18.6937108,8.88571429 19.047619,8.53180604 19.047619,8.0952381 C19.047619,4.15034703 15.849653,0.952380952 11.9047619,0.952380952 C11.468194,0.952380952 11.1142857,1.3062892 11.1142857,1.74285714 L11.1142857,8.0952381 C11.1142857,8.53180604 11.468194,8.88571429 11.9047619,8.88571429 Z" opacity=".48"/>
    <path d="M18.1714286,10.4761905 L10.4095238,10.4761905 C10.1796695,10.4761905 9.95922946,10.3848812 9.79669793,10.2223497 C9.6341664,10.0598182 9.54285714,9.8393781 9.54285714,9.60952381 L9.54285714,1.82857143 C9.54433807,1.57870836 9.43907108,1.34009928 9.25352707,1.17274586 C9.06798306,1.00539244 8.81981511,0.925217057 8.57142857,0.952380952 C3.59994917,1.48027191 -0.11709445,5.76239373 0.0591612993,10.7587134 C0.235417049,15.7550331 4.24496693,19.764583 9.2412866,19.9408387 C14.2376063,20.1170945 18.5197281,16.4000508 19.047619,11.4285714 C19.06903,11.1832984 18.986259,10.9403346 18.8195638,10.7591442 C18.6528686,10.5779537 18.4176326,10.4752577 18.1714286,10.4761905 Z"/>
  </g>
</svg>
